_includes/svg/gsa-logo.svg

<svg width="48px" height="48px" viewBox="0 0 48 48" version="1.1" xmlns="http://www.w3.org/2000/svg" xmlns:xlink="http://www.w3.org/1999/xlink">
    <!-- Generator: Sketch 39.1 (31720) - http://www.bohemiancoding.com/sketch -->
    <title>GSA-logo</title>
    <desc>Created with Sketch.</desc>
    <defs></defs>
    <g id="Symbols" stroke="none" stroke-width="1" fill="none" fill-rule="evenodd">
        <g id="Rectangle" transform="translate(-168.000000, -32.000000)">
            <g id="Group" transform="translate(100.000000, 32.000000)">
                <g id="GSA-logo" transform="translate(68.000000, 0.000000)">
                    <g id="Layer_1">
                        <rect id="Rectangle-path" fill="#00548E" x="0" y="0" width="47.6332075" height="47.6784906"></rect>
                        <polygon id="Shape" fill="#FFFFFF" points="38.4226415 32.3003774 37.349434 29.7192453 36.2083019 32.3003774 33.6181132 32.3003774 37.2633962 24.2762264 40.9267925 32.3003774"></polygon>
                        <polygon id="Shape" fill="#FFFFFF" points="35.2437736 34.0573585 33.9079245 37.1049057 37.1683019 35.4339623 38.9660377 36.8558491 32.6128302 39.9441509 30.1086792 39.9441509 33.450566 32.4271698"></polygon>
                        <polygon id="Shape" fill="#FFFFFF" points="44.2279245 39.9441509 41.5109434 39.9441509 39.0430189 34.1071698 40.8135849 32.3818868"></polygon>
                        <path d="M28.1615094,24.765283 C28.1615094,24.765283 27.7901887,27.029434 27.8264151,27.1335849 C26.4181132,26.4316981 24.4120755,26.0060377 23.0762264,26.7441509 C22.410566,27.1109434 22.170566,28.1433962 22.4784906,28.9267925 C24.6611321,31.3177358 28.5283019,30.7381132 28.7411321,35.3660377 C28.7511391,36.6231108 28.225893,37.8250847 27.2966038,38.6716981 C25.2633962,40.2656604 22.3154717,40.1479245 19.9426415,39.3056604 L20.1871698,36.8060377 C21.5456604,37.5441509 24.090566,38.2143396 25.5713208,36.8422642 C26.0784906,36.389434 26.205283,35.5743396 26.1328302,34.7683019 C25.2860377,32.3049057 18.6022642,32.4090566 19.8339623,27.3101887 C20.1918403,26.0319183 21.1498333,25.0080316 22.4015094,24.5660377 C24.1313208,23.7645283 26.4815094,24.2309434 28.1615094,24.765283 L28.1615094,24.765283 Z" id="Shape" fill="#FFFFFF"></path>
                        <path d="M15.8898113,25.0777358 L15.8037736,27.5909434 C13.9471698,26.3954717 10.650566,25.9562264 8.51773585,27.2150943 C6.61584906,28.3335849 6.0045283,29.9773585 5.96377358,31.9879245 C5.91849057,34.1298113 6.79245283,36.1403774 8.90264151,37.245283 C10.2883019,37.9698113 13.5169811,37.6211321 13.5169811,37.6211321 L13.5169811,33.8037736 L10.7139623,33.8037736 L10.7366038,31.44 L16.1207547,31.44 L16.1207547,39.4732075 C13.154717,40.3788679 9.26490566,40.4150943 6.66566038,38.6445283 C3.89433962,36.7471698 3.40981132,34.4150943 3.40981132,31.9879245 C3.40981132,28.7230189 5.36150943,25.2362264 9.22867925,24.4935849 C11.4604186,24.0698664 13.7658855,24.2720453 15.8898113,25.0777358 L15.8898113,25.0777358 Z" id="Shape" fill="#FFFFFF"></path>
                    </g>
                </g>
            </g>
        </g>
    </g>
</svg>

<svg width="48" height="48" xmlns="http://www.w3.org/2000/svg" role="img"><g fill="none" fill-rule="evenodd"><path fill="#00548E" d="M0 0h47.633v47.678H0z"/><path fill="#FFF" d="M38.423 32.3l-1.074-2.58-1.14 2.58h-2.59l3.644-8.024 3.664 8.024zM35.244 34.057l-1.336 3.048 3.26-1.671 1.798 1.422-6.353 3.088h-2.504l3.342-7.517zM44.228 39.944H41.51l-2.468-5.837 1.77-1.725zM28.162 24.765s-.372 2.264-.336 2.369c-1.408-.702-3.414-1.128-4.75-.39-.665.367-.905 1.4-.598 2.183 2.183 2.39 6.05 1.811 6.263 6.439a4.424 4.424 0 01-1.444 3.306c-2.034 1.594-4.982 1.476-7.354.634l.244-2.5c1.359.738 3.904 1.408 5.384.036.507-.453.634-1.268.562-2.074-.847-2.463-7.53-2.359-6.299-7.458a4.075 4.075 0 012.568-2.744c1.73-.801 4.08-.335 5.76.2zM15.89 25.078l-.086 2.513c-1.857-1.196-5.153-1.635-7.286-.376-1.902 1.119-2.513 2.762-2.554 4.773-.046 2.142.828 4.152 2.939 5.257 1.385.725 4.614.376 4.614.376v-3.817h-2.803l.023-2.364h5.384v8.033c-2.966.906-6.856.942-9.455-.828-2.772-1.898-3.256-4.23-3.256-6.657 0-3.265 1.952-6.752 5.819-7.494a12.308 12.308 0 016.66.584z"/></g></svg>
